X:1
T:Caherlistrane Jig
R:jig
I:abc2nwc
M:6/8
L:1/8
K:A
A B|:c2c BAF|EAF E2E|FEC A,CE|FAA B2B|c2c BAF|EAF E2E|FEC A,CE|FAA A2B:|
|:c2c e2e|fec B2B|cec BAF|EFA BAB|c2c ece|
fec B2B|cec BAF|[1EFA A2B:|[2EFA A3|]
